X:1
T:Title
%%score { ( 1 3 ) | 2 }
L:1/8
Q:1/4=75
M:6/8
K:C
V:1 treble nm="Grand Piano"
V:3 treble 
V:2 bass 
V:1
 [EG][EG][EG] [EG][EG][Ec] | [Fc][FB][FA] [FB]3 | GGG GGd | [Fd][Ec][DB] [Ec]3 | %4
w: John~R.~Sweney * * * * *||||
 [EG][EG][Ge] [Ge][Fd][Ec] | cBc A3 | dcA AGc | [DB][Ec][Fd] [Ec]3 | Gdd BAG | [EG][FA][EG] [Ec]3 | %10
w: ||||||
 EEE [CA][DB][Ec] | z3 G3 | [EG][EG][Ge] [Ge][Fd][Ec] | cBc A3 | dcA AGc | %15
w: |||||
[M:7/4] [DB][Ec][Fd] [Ec]3 z2 z2 z4 |] %16
w: |
V:2
 [C,C][C,C][C,C] [C,C][C,C][C,G,] | [D,G,][D,G,][D,G,] [D,G,]3 | %2
 [G,B,F][G,B,F][G,B,F] [G,B,F][G,B,F][G,B,F] | [C,C][C,G,][C,G,] [C,G,]3 | %4
 [C,C][C,C][C,C] [C,C][C,G,][C,G,] | [F,A,F][F,^G,F][F,A,F] [F,CF]3 | %6
 [F,A,F][F,A,F][F,CF] [G,CE][G,CE][G,E] | [G,,G,][G,,G,][G,,G,] [C,G,]3 | %8
 [G,B,F][G,B,F][G,B,F] [G,DF][G,CF][G,B,F] | [C,C][C,C][C,C] [C,G,]3 | %10
 [A,C][A,C][A,C] [A,,E,][A,,E,][A,,A,] | [D,CD][D,CD][D,CD] .[G,B,D]3 | %12
 [C,C][C,C][C,C] [C,C][C,G,][C,G,] | [F,A,F][F,^G,F][F,A,F] [F,CF]3 | %14
 [F,A,F][F,A,F][F,CF] [G,CE][G,CE][G,E] |[M:7/4] [G,,G,][G,,G,][G,,G,] [C,G,]3 z2 z2 z4 |] %16
V:3
 x6 | x6 | x6 | x6 | x6 | x6 | x6 | x6 | x6 | x6 | x6 | ^FEF z2 =F | x6 | x6 | x6 |[M:7/4] x14 |] %16

